X:285
T: NACH DEM STURME FAHREN WIR
N: B0763
O: Europa, Mitteleuropa, Deutschland
R: Staende -, Seemanns - Lied, religioes
M: 4/4
L: 1/8
K: E
 | E2=G2B2B2 | A2B=cB4
e2=dcB2A2 | B4B,4
E2=G2B2B2 | A2B=cB4
e2=dcB2A2 | B4B,4
e2=d=cB2B2 | =d2=cBA4
c2BA=G2G2 | B2A=GF4
B6GA | B6B2 | e2EF=G2F2 | E6z2

